X: 10664
Q: "Slowish."
U: p=!crescendo(!
U: P=!crescendo)!
U: Q=!diminuendo(!
U: q=!diminuendo)!
M: C
L: 1/8
K: Bb
(=efag f_edc) | (B3~d) c2F>F |\
(=efa>"^Dolce."g f_ecd) | B4 z2 :|
|: (c>d |\
e>de>d e>cB>A) | (B3~d) f2b>b |\
(bagf) (fedc) | (B3~d) c2F>F |\
=efQa<g f>_e (3(cqe>d) | B4 z2 :|



